public/advantage-windows.svg

<svg width="75" height="78" viewBox="0 0 75 78" fill="none" xmlns="http://www.w3.org/2000/svg">
<path fill-rule="evenodd" clip-rule="evenodd" d="M1.18945 42.4554L37.9554 21.2334C38.1564 21.1446 38.3769 21.1094 38.5955 21.1313C38.814 21.1532 39.0231 21.2315 39.2024 21.3584L72.1165 40.3644C72.6381 40.6931 73.0673 41.1495 73.3634 41.6904L36.5964 62.9054C36.3057 62.3793 35.8992 61.9261 35.4075 61.5804L2.4364 42.5733C2.25764 42.445 2.04797 42.3664 1.82886 42.3457C1.60975 42.325 1.38912 42.3628 1.18945 42.4554Z" fill="white"/>
<path fill-rule="evenodd" clip-rule="evenodd" d="M72.4026 41.478L36.8257 62.025C36.5243 61.6349 36.1607 61.297 35.7496 61.025L3.0626 42.1609L38.2997 21.817C38.4127 21.767 38.5266 21.755 38.9226 21.959L71.7806 40.942C72.0118 41.0921 72.2215 41.2731 72.4037 41.48L72.4026 41.478ZM36.6026 63.5779C36.7219 63.5771 36.8389 63.5457 36.9426 63.4869L73.7026 42.271C73.866 42.1833 73.9879 42.0344 74.0416 41.857C74.0612 41.6792 74.0214 41.4999 73.9286 41.347C73.5937 40.704 73.0829 40.1695 72.4557 39.806L39.5426 20.793C39.2696 20.6102 38.9544 20.5006 38.6269 20.4747C38.2995 20.4488 37.9709 20.5074 37.6726 20.645L0.84959 41.884C0.708041 41.976 0.606224 42.1177 0.56419 42.2812C0.522155 42.4448 0.543036 42.6181 0.622661 42.767C0.699875 42.9156 0.831072 43.029 0.989361 43.0839C1.14765 43.1388 1.32095 43.1309 1.47361 43.0619C1.64361 42.9829 1.75657 42.971 2.15257 43.17L35.0666 62.17C35.4843 62.4393 35.818 62.8204 36.0296 63.27C36.0937 63.3615 36.1782 63.4369 36.2765 63.4902C36.3747 63.5434 36.4839 63.5732 36.5956 63.577L36.6026 63.5779Z" fill="#005BEA"/>
<path fill-rule="evenodd" clip-rule="evenodd" d="M0.679765 43.6062C0.650019 43.3861 0.681885 43.162 0.771928 42.959C0.86197 42.7559 1.00667 42.5819 1.18977 42.4562C1.38909 42.3629 1.60971 42.3246 1.82881 42.3453C2.04792 42.3661 2.25749 42.4451 2.43575 42.5742L35.4067 61.5812C35.9112 61.9123 36.321 62.3689 36.5958 62.9062V62.9122C36.9371 63.4347 37.1329 64.0388 37.1628 64.6622V75.9072C37.1827 76.1324 37.1404 76.3588 37.0404 76.5616C36.9404 76.7644 36.7866 76.9358 36.5958 77.0572C36.4061 77.1497 36.1943 77.1875 35.9843 77.1664C35.7743 77.1454 35.5743 77.0664 35.4067 76.9382L2.43575 57.9322C1.92625 57.5871 1.50052 57.1323 1.18977 56.6012C0.864646 56.0743 0.688388 55.4692 0.679765 54.8502V43.6062Z" fill="white"/>
<path fill-rule="evenodd" clip-rule="evenodd" d="M1.64287 43.0016C1.80537 43.0084 1.96255 43.0615 2.09587 43.1546L35.0658 62.1606C35.4779 62.4286 35.8104 62.8023 36.0289 63.2426C36.2997 63.6698 36.456 64.1596 36.4828 64.6647V75.9096C36.5021 76.1151 36.4411 76.32 36.3128 76.4816C36.1998 76.5326 36.0299 76.5326 35.6899 76.3627L2.77483 57.3606C2.35864 57.0803 2.01017 56.7106 1.75481 56.2786C1.49864 55.8481 1.36076 55.3576 1.35491 54.8566V43.6076C1.35491 43.2616 1.41083 43.0856 1.52483 43.0356C1.58083 43.0126 1.58084 43.0016 1.63884 43.0016H1.64287ZM36.1429 77.8476C36.4212 77.8495 36.6949 77.777 36.9358 77.6376C37.2298 77.4592 37.4695 77.204 37.6293 76.8996C37.7891 76.5951 37.8629 76.2529 37.8428 75.9096V64.6606C37.8186 63.9235 37.604 63.2052 37.2199 62.5756C36.8481 61.9327 36.3227 61.3919 35.6908 61.0016L2.77581 41.9956C2.49412 41.8069 2.16733 41.6964 1.82891 41.6755C1.49048 41.6546 1.15268 41.724 0.849903 41.8766C0.572394 42.068 0.348558 42.3274 0.199756 42.6299C0.0509544 42.9324 -0.0179462 43.2679 -0.000195077 43.6046V54.8497C0.0420399 55.58 0.253827 56.2904 0.618335 56.9246C0.982844 57.5588 1.49015 58.0995 2.0999 58.5036L35.0709 77.5096C35.3896 77.7203 35.761 77.8374 36.1429 77.8476Z" fill="#005BEA"/>
<path fill-rule="evenodd" clip-rule="evenodd" d="M36.5957 62.9064L73.3627 41.6914C73.6982 42.2136 73.8753 42.8217 73.8727 43.4424V54.6874C73.9075 54.908 73.8779 55.1339 73.7875 55.3381C73.697 55.5422 73.5495 55.716 73.3627 55.8384L36.5957 77.0534C36.7803 76.9258 36.9292 76.7533 37.0284 76.552C37.1277 76.3508 37.1739 76.1275 37.1627 75.9034V64.6634C37.117 64.0427 36.9225 63.4421 36.5957 62.9124V62.9064Z" fill="#F2F5FC"/>
<path fill-rule="evenodd" clip-rule="evenodd" d="M73.0791 42.6325C73.1671 42.9067 73.2241 43.1898 73.2492 43.4765V54.6925C73.1922 55.1005 73.1351 55.1856 72.9651 55.2926L37.8421 75.6026V64.6636C37.8012 64.1531 37.6867 63.6512 37.5021 63.1736L73.0791 42.6325ZM36.5961 77.7276C36.7153 77.7267 36.8325 77.6954 36.9362 77.6366L73.7032 56.4206C73.9871 56.2424 74.2166 55.9896 74.3665 55.6897C74.5164 55.3899 74.5809 55.0546 74.5531 54.7206V43.4476C74.5558 42.7179 74.3598 42.0013 73.9861 41.3746C73.9358 41.2934 73.8699 41.223 73.7921 41.1675C73.7144 41.1121 73.6263 41.0727 73.5331 41.0516C73.4479 41.0276 73.3588 41.0214 73.2711 41.0331C73.1835 41.0448 73.099 41.0742 73.0231 41.1195L36.3131 62.3356C36.235 62.3742 36.1656 62.4282 36.1088 62.4944C36.052 62.5605 36.0091 62.6374 35.9827 62.7205C35.9563 62.8036 35.9468 62.891 35.955 62.9778C35.9631 63.0646 35.9888 63.1489 36.0302 63.2256C36.3022 63.6688 36.4583 64.1732 36.4842 64.6925V75.9096C36.502 76.0216 36.4905 76.1363 36.4507 76.2425C36.4109 76.3488 36.3442 76.4428 36.2571 76.5155C36.1169 76.6128 36.0166 76.7576 35.9749 76.923C35.9332 77.0885 35.9529 77.2635 36.0302 77.4156C36.0988 77.5028 36.1842 77.5753 36.2814 77.6288C36.3787 77.6822 36.4857 77.7154 36.5961 77.7265V77.7276Z" fill="#005BEA"/>
<path fill-rule="evenodd" clip-rule="evenodd" d="M8.89426 57.404C9.01341 57.4034 9.1304 57.3724 9.23423 57.314C9.33094 57.251 9.41185 57.1667 9.4708 57.0676C9.52975 56.9684 9.56513 56.857 9.57419 56.742V53.071C9.56581 52.9558 9.53079 52.8442 9.47178 52.7449C9.41276 52.6456 9.33141 52.5614 9.23423 52.499L6.00522 50.664C5.91173 50.6053 5.80359 50.5742 5.69321 50.5742C5.58284 50.5742 5.47469 50.6053 5.3812 50.664C5.27635 50.7191 5.18904 50.8024 5.12913 50.9045C5.06921 51.0067 5.03909 51.1236 5.04221 51.242V54.907C5.03909 55.0254 5.06921 55.1423 5.12913 55.2444C5.18904 55.3466 5.27635 55.4299 5.3812 55.485L8.55417 57.315C8.6581 57.3731 8.7752 57.4037 8.89426 57.404Z" fill="#3199F0"/>
<path fill-rule="evenodd" clip-rule="evenodd" d="M33.933 69.0936C34.0489 69.0946 34.163 69.064 34.2629 69.0052C34.3627 68.9463 34.4447 68.8614 34.5 68.7596C34.5804 68.6071 34.6016 68.4303 34.5597 68.2632C34.5178 68.096 34.4157 67.9502 34.273 67.8536L14.445 56.4106C14.2922 56.3244 14.1118 56.3017 13.9424 56.3471C13.773 56.3925 13.6281 56.5025 13.539 56.6536C13.4592 56.8071 13.4382 56.9846 13.48 57.1525C13.5218 57.3205 13.6235 57.4674 13.766 57.5656L33.594 69.0036C33.6976 69.0619 33.8142 69.0928 33.933 69.0936Z" fill="#1B69FF"/>
<path d="M23.6953 31.5016V15.6266L36.5613 8.22656V23.9556C36.5613 24.1156 36.5732 24.0935 36.4432 24.1675L23.8013 31.4416C23.7663 31.4596 23.7303 31.4826 23.6953 31.5016Z" fill="#1B69FF"/>
<path d="M37.9932 7.40002L50.8591 0V15.877L50.7592 15.937L38.1191 23.208C37.9911 23.282 38.0022 23.293 38.0022 23.131V7.54102C37.9932 7.49302 37.9932 7.44602 37.9932 7.40002Z" fill="#1B69FF"/>
<path d="M36.5613 41.7475L23.6953 49.1475V33.2695L23.8013 33.2085L36.4393 25.9385C36.5693 25.8645 36.5573 25.8535 36.5573 26.0155V41.6045C36.5583 41.6565 36.5593 41.7015 36.5613 41.7475Z" fill="#1B69FF"/>
<path d="M50.8633 17.6445V33.5245L37.9973 40.9246V25.1975C37.9973 25.0375 37.9862 25.0586 38.1152 24.9846L50.7543 17.7136L50.8633 17.6445Z" fill="#1B69FF"/>
</svg>

<svg xmlns="http://www.w3.org/2000/svg" width="75" height="78" fill="none" viewBox="0 0 75 78"><path fill="#fff" fill-rule="evenodd" d="m1.19 42.455 36.765-21.222a1.27 1.27 0 0 1 1.247.125l32.915 19.006c.521.33.95.786 1.246 1.326L36.596 62.905a4 4 0 0 0-1.188-1.325L2.435 42.573a1.24 1.24 0 0 0-1.247-.118" clip-rule="evenodd"/><path fill="#005bea" fill-rule="evenodd" d="M72.403 41.478 36.826 62.025a4.5 4.5 0 0 0-1.076-1L3.063 42.161 38.3 21.817c.113-.05.227-.062.623.142L71.78 40.942q.347.226.623.538zm-35.8 22.1c.119 0 .236-.032.34-.091l36.76-21.216a.7.7 0 0 0 .339-.414.8.8 0 0 0-.113-.51 3.8 3.8 0 0 0-1.473-1.541L39.543 20.793a1.92 1.92 0 0 0-1.87-.148L.85 41.884a.674.674 0 0 0 .14 1.2.66.66 0 0 0 .484-.022c.17-.08.283-.091.679.108l32.914 19c.417.27.751.65.963 1.1a.72.72 0 0 0 .566.307z" clip-rule="evenodd"/><path fill="#fff" fill-rule="evenodd" d="M.68 43.606a1.2 1.2 0 0 1 .51-1.15 1.23 1.23 0 0 1 1.246.118l32.97 19.007a3.5 3.5 0 0 1 1.19 1.325v.006c.341.523.537 1.127.567 1.75v11.245a1.23 1.23 0 0 1-.567 1.15 1.14 1.14 0 0 1-1.19-.119L2.437 57.932c-.51-.345-.935-.8-1.246-1.33a3.4 3.4 0 0 1-.51-1.752z" clip-rule="evenodd"/><path fill="#005bea" fill-rule="evenodd" d="M1.643 43.002c.162.006.32.06.453.153l32.97 19.006c.412.268.744.641.963 1.082.27.427.427.917.454 1.422V75.91a.8.8 0 0 1-.17.572c-.113.05-.283.05-.623-.12L2.775 57.362a3.4 3.4 0 0 1-1.02-1.082 2.85 2.85 0 0 1-.4-1.422v-11.25c0-.345.056-.521.17-.571.056-.023.056-.034.114-.034zm34.5 34.846c.278.002.552-.071.793-.21a1.89 1.89 0 0 0 .907-1.728V64.66a4.3 4.3 0 0 0-.623-2.084 4.5 4.5 0 0 0-1.53-1.574L2.777 41.996a1.91 1.91 0 0 0-1.926-.12A1.97 1.97 0 0 0 0 43.606V54.85a4.71 4.71 0 0 0 2.1 3.654L35.07 77.51c.32.21.691.327 1.073.338" clip-rule="evenodd"/><path fill="#f2f5fc" fill-rule="evenodd" d="m36.596 62.906 36.767-21.215c.335.523.512 1.13.51 1.751v11.245a1.16 1.16 0 0 1-.51 1.151L36.596 77.053a1.32 1.32 0 0 0 .567-1.15v-11.24a3.9 3.9 0 0 0-.567-1.75z" clip-rule="evenodd"/><path fill="#005bea" fill-rule="evenodd" d="M73.08 42.633q.13.413.17.843v11.217c-.058.407-.115.493-.285.6l-35.123 20.31v-10.94a5.3 5.3 0 0 0-.34-1.49zM36.595 77.727a.7.7 0 0 0 .34-.091L73.703 56.42a1.83 1.83 0 0 0 .85-1.7V43.448a4 4 0 0 0-.567-2.073.72.72 0 0 0-.453-.323.65.65 0 0 0-.51.068l-36.71 21.216a.647.647 0 0 0-.283.89 3.1 3.1 0 0 1 .454 1.466V75.91a.66.66 0 0 1-.227.606.706.706 0 0 0-.227.9.83.83 0 0 0 .566.31z" clip-rule="evenodd"/><path fill="#3199f0" fill-rule="evenodd" d="M8.894 57.404a.7.7 0 0 0 .34-.09.75.75 0 0 0 .34-.572v-3.671a.74.74 0 0 0-.34-.572l-3.229-1.835a.59.59 0 0 0-.624 0 .63.63 0 0 0-.339.578v3.665a.63.63 0 0 0 .34.578l3.172 1.83a.7.7 0 0 0 .34.089" clip-rule="evenodd"/><path fill="#1b69ff" fill-rule="evenodd" d="M33.933 69.094a.64.64 0 0 0 .567-.334.7.7 0 0 0-.227-.906L14.445 56.41a.67.67 0 0 0-.906.243.71.71 0 0 0 .227.912l19.828 11.438a.7.7 0 0 0 .339.09" clip-rule="evenodd"/><path fill="#1b69ff" d="M23.695 31.502V15.627l12.866-7.4v15.729c0 .16.012.137-.118.212l-12.642 7.274q-.052.029-.106.06M37.993 7.4 50.86 0v15.877l-.1.06-12.64 7.271c-.128.074-.117.085-.117-.077V7.541c-.009-.048-.009-.095-.009-.141M36.561 41.748l-12.866 7.4V33.269l.106-.06 12.638-7.27c.13-.075.118-.085.118.076v15.59zM50.863 17.645v15.88l-12.866 7.4V25.198c0-.16-.01-.14.118-.213l12.64-7.271z"/></svg>
